src/assets/full-logo.svg

<svg fill="none" height="200" viewBox="0 0 200 200" width="200" xmlns="http://www.w3.org/2000/svg" xmlns:xlink="http://www.w3.org/1999/xlink"><clipPath id="a"><path d="m42 19h112v105h-112z"/></clipPath><g clip-path="url(#a)"><path d="m98.1066 123.849c-8.2715.782-16.4822-1.684-24.6929-3.819-6.1124-1.595-11.1605-5.354-16.0869-9.174-1.1556-.902-2.2503-1.865-3.4363-2.707-5.7475-3.97-9.0014-9.4443-10.4002-16.1816-1.3989-6.7073-1.8854-13.5047-1.1556-20.2722.4257-3.9401 1.7638-7.79 2.6457-11.7 1.9766-8.8127 5.5042-17.0539 10.0049-24.874 2.3111-4.0304 5.1088-7.6998 8.758-10.6775 1.2773-1.0527 2.4632-2.2257 3.6492-3.3987 2.3416-2.316 6.5078-2.7671 9.2143-.8722 2.5848 1.8046 4.6527 4.0002 5.7474 7.008 1.034 2.8874 1.8551 5.835 3.1627 8.6021 1.5205 3.3085 3.1322 6.6471 5.3217 9.5345 1.0644 1.4137 3.4668 1.8347 5.2914 2.6468.4865.2106 1.0947.1504 1.6421.2106 4.2579.391 5.9909-.8121 7.2069-4.9026.122-.4211.274-.8723.487-1.2633 3.436-6.1057 6.872-12.2415 10.4-18.3171 1.977-3.4288 4.987-4.9026 8.971-3.9702 1.034.2406 2.159.6617 2.98 1.3234 5.504 4.3612 10.127 9.4744 13.229 15.8808 2.372 4.9327 5.26 9.6849 7.389 14.7379 1.794 4.3312 3.224 8.9029 4.014 13.4747 1.308 7.399 2.068 14.9184 1.125 22.4377-1.155 9.1736-4.926 17.2039-11.768 23.6409-1.46 1.353-3.132 2.647-4.927 3.459-5.321 2.376-10.582 4.932-16.299 6.466-7.299 1.925-14.597 3.008-22.4734 2.707zm-35.7925-80.7874c.0304.5113.0304.9926.0608 1.5039.2433 2.7671 1.2772 3.8499 4.0749 4.0304 1.6118.0902 3.2539.1203 4.8352-.1805 3.9533-.7519 7.5721-3.0077 5.0785-8.7224-.669-1.534-.8819-3.2484-1.4901-4.8425-.4258-1.1429-.9731-2.316-1.7638-3.2183-1.6725-1.8648-3.4971-1.7144-5.1089.2707-.7602.9324-1.5205 1.8949-2.1287 2.9175-1.5205 2.5867-3.862 4.8726-3.5579 8.2412zm60.3639 2.7671c1.581-.1804 3.862-.3308 6.082-.7218 2.463-.4211 3.649-1.955 3.193-4.3913-.426-2.2859-1.125-4.5417-1.885-6.7674-.365-1.0527-1.004-2.1054-1.734-2.9777-2.402-2.9476-5.991-2.6468-7.42.782-1.247 2.9476-2.098 6.0456-2.919 9.1436-.882 3.3686.486 4.9627 4.683 4.9326zm-33.4815 26.1372c-.0912-.9323-.1217-1.6843-.2433-2.4362-.8819-5.2034-5.0176-7.3088-9.1534-9.3842-.2129-.0902-.517-.0902-.7602-.03-2.0375.5714-4.075 1.1128-6.082 1.7445-.7603.2406-.9123.6917-.6691 1.5038.6386 2.2558 2.1896 3.8499 3.9533 5.1433 3.1019 2.3159 6.3861 4.4213 9.5792 6.617.2129.1504.3953.3007.6082.421 1.338.752 2.0375.4813 2.3416-.9925.2432-.9023.3345-1.8347.4257-2.5867zm45.6755 1.5039c1.065-5.6846-2.159-10.4669-8.849-13.2641-1.946-.8121-7.967 1.4437-9.61 3.6394 3.528 3.5491 7.816 6.1357 12.043 8.7224.243.1504.578.1504.882.2105 1.824.2407 3.618.4512 5.534.6918zm-51.6359 8.933c-1.4901-1.8347-2.6152-3.6995-4.1965-5.0229-3.2843-2.7371-6.7815-5.2335-10.2482-7.76-1.186-.8722-2.4328-.3308-2.6153 1.1129-.1824 1.3234-.3041 2.7069-.152 4.0303.4561 3.9101 2.5544 6.8276 6.1732 8.4818 3.6796 1.7145 7.2376 1.3235 11.0388-.8421zm28.7679-10.5872c-.639 5.1131 1.855 9.6247 6.264 11.5497 3.863 1.6843 9.245.9023 11.617-1.7746-1.794-1.564-3.588-3.1882-5.443-4.662-1.095-.8722-2.281-1.6542-3.528-2.3159-2.737-1.5039-5.413-3.3086-8.91-2.7972z" fill="#000"/></g></svg>

<svg width="200" height="200" viewBox="0 0 200 200" fill="none" xmlns="http://www.w3.org/2000/svg">
<g clip-path="url(#clip0_11786_4194)">
<path d="M98.1066 123.849C89.8351 124.631 81.6244 122.165 73.4137 120.03C67.3013 118.435 62.2532 114.676 57.3268 110.856C56.1712 109.954 55.0765 108.991 53.8905 108.149C48.143 104.179 44.8891 98.7047 43.4903 91.9674C42.0914 85.2601 41.6049 78.4627 42.3347 71.6952C42.7604 67.7551 44.0985 63.9052 44.9804 59.9952C46.957 51.1825 50.4846 42.9413 54.9853 35.1212C57.2964 31.0908 60.0941 27.4214 63.7433 24.4437C65.0206 23.391 66.2065 22.218 67.3925 21.045C69.7341 18.729 73.9003 18.2779 76.6068 20.1728C79.1916 21.9774 81.2595 24.173 82.3542 27.1808C83.3882 30.0682 84.2093 33.0158 85.5169 35.7829C87.0374 39.0914 88.6491 42.43 90.8386 45.3174C91.903 46.7311 94.3054 47.1521 96.13 47.9642C96.6165 48.1748 97.2247 48.1146 97.7721 48.1748C102.03 48.5658 103.763 47.3627 104.979 43.2722C105.101 42.8511 105.253 42.3999 105.466 42.0089C108.902 35.9032 112.338 29.7674 115.866 23.6918C117.843 20.263 120.853 18.7892 124.837 19.7216C125.871 19.9622 126.996 20.3833 127.817 21.045C133.321 25.4062 137.944 30.5194 141.046 36.9258C143.418 41.8585 146.306 46.6107 148.435 51.6637C150.229 55.9949 151.659 60.5666 152.449 65.1384C153.757 72.5374 154.517 80.0568 153.574 87.5761C152.419 96.7497 148.648 104.78 141.806 111.217C140.346 112.57 138.674 113.864 136.879 114.676C131.558 117.052 126.297 119.608 120.58 121.142C113.281 123.067 105.983 124.15 98.1066 123.849ZM62.3141 43.0616C62.3445 43.5729 62.3445 44.0542 62.3749 44.5655C62.6182 47.3326 63.6521 48.4154 66.4498 48.5959C68.0616 48.6861 69.7037 48.7162 71.285 48.4154C75.2383 47.6635 78.8571 45.4077 76.3635 39.693C75.6945 38.159 75.4816 36.4446 74.8734 34.8505C74.4476 33.7076 73.9003 32.5345 73.1096 31.6322C71.4371 29.7674 69.6125 29.9178 68.0007 31.9029C67.2405 32.8353 66.4802 33.7978 65.872 34.8204C64.3515 37.4071 62.01 39.693 62.3141 43.0616ZM122.678 45.8287C124.259 45.6483 126.54 45.4979 128.76 45.1069C131.223 44.6858 132.409 43.1519 131.953 40.7156C131.527 38.4297 130.828 36.1739 130.068 33.9482C129.703 32.8955 129.064 31.8428 128.334 30.9705C125.932 28.0229 122.343 28.3237 120.914 31.7525C119.667 34.7001 118.816 37.7981 117.995 40.8961C117.113 44.2647 118.481 45.8588 122.678 45.8287ZM89.1965 71.9659C89.1053 71.0336 89.0748 70.2816 88.9532 69.5297C88.0713 64.3263 83.9356 62.2209 79.7998 60.1455C79.5869 60.0553 79.2828 60.0553 79.0396 60.1155C77.0021 60.6869 74.9646 61.2283 72.9576 61.86C72.1973 62.1006 72.0453 62.5517 72.2885 63.3638C72.9271 65.6196 74.4781 67.2137 76.2418 68.5071C79.3437 70.823 82.6279 72.9284 85.821 75.1241C86.0339 75.2745 86.2163 75.4248 86.4292 75.5451C87.7672 76.2971 88.4667 76.0264 88.7708 74.5526C89.014 73.6503 89.1053 72.7179 89.1965 71.9659ZM134.872 73.4698C135.937 67.7852 132.713 63.0029 126.023 60.2057C124.077 59.3936 118.056 61.6494 116.413 63.8451C119.941 67.3942 124.229 69.9808 128.456 72.5675C128.699 72.7179 129.034 72.7179 129.338 72.778C131.162 73.0187 132.956 73.2292 134.872 73.4698ZM83.2361 82.4028C81.746 80.5681 80.6209 78.7033 79.0396 77.3799C75.7553 74.6428 72.2581 72.1464 68.7914 69.6199C67.6054 68.7477 66.3586 69.2891 66.1761 70.7328C65.9937 72.0562 65.872 73.4397 66.0241 74.7631C66.4802 78.6732 68.5785 81.5907 72.1973 83.2449C75.8769 84.9594 79.4349 84.5684 83.2361 82.4028ZM112.004 71.8156C111.365 76.9287 113.859 81.4403 118.268 83.3653C122.131 85.0496 127.513 84.2676 129.885 81.5907C128.091 80.0267 126.297 78.4025 124.442 76.9287C123.347 76.0565 122.161 75.2745 120.914 74.6128C118.177 73.1089 115.501 71.3042 112.004 71.8156Z" fill="black"/>
</g>
<defs>
<clipPath id="clip0_11786_4194">
<rect width="112" height="105" fill="white" transform="translate(42 19)"/>
</clipPath>
</defs>
</svg>
